packages/icons/svgs/duotone/Source=download.svg

<svg width="24" height="24" viewBox="0 0 24 24" fill="none" xmlns="http://www.w3.org/2000/svg">
<path opacity="0.55" fill-rule="evenodd" clip-rule="evenodd" d="M2 15C2.55228 15 3 15.4477 3 16V20C3 20.2652 3.10536 20.5196 3.29289 20.7071C3.48043 20.8946 3.73478 21 4 21H20C20.2652 21 20.5196 20.8946 20.7071 20.7071C20.8946 20.5196 21 20.2652 21 20V16C21 15.4477 21.4477 15 22 15C22.5523 15 23 15.4477 23 16V20C23 20.7957 22.6839 21.5587 22.1213 22.1213C21.5587 22.6839 20.7957 23 20 23H4C3.20435 23 2.44129 22.6839 1.87868 22.1213C1.31607 21.5587 1 20.7956 1 20V16C1 15.4477 1.44772 15 2 15Z" fill="black"/>
<path fill-rule="evenodd" clip-rule="evenodd" d="M12 0C12.5523 0 13 0.447715 13 1V16C13 16.5523 12.5523 17 12 17C11.4477 17 11 16.5523 11 16V1C11 0.447715 11.4477 0 12 0Z" fill="black"/>
<path fill-rule="evenodd" clip-rule="evenodd" d="M6.29289 10.2929C6.68342 9.90237 7.31658 9.90237 7.70711 10.2929L12 14.5858L16.2929 10.2929C16.6834 9.90237 17.3166 9.90237 17.7071 10.2929C18.0976 10.6834 18.0976 11.3166 17.7071 11.7071L12.7071 16.7071C12.3166 17.0976 11.6834 17.0976 11.2929 16.7071L6.29289 11.7071C5.90237 11.3166 5.90237 10.6834 6.29289 10.2929Z" fill="black"/>
</svg>

<svg xmlns="http://www.w3.org/2000/svg" width="24" height="24" viewBox="0 0 24 24"><path fill-rule="evenodd" d="M2 15a1 1 0 0 1 1 1v4a1 1 0 0 0 1 1h16a1 1 0 0 0 1-1v-4a1 1 0 1 1 2 0v4a3 3 0 0 1-3 3H4a3 3 0 0 1-3-3v-4a1 1 0 0 1 1-1Z" clip-rule="evenodd" opacity=".55"/><path fill-rule="evenodd" d="M12 0a1 1 0 0 1 1 1v15a1 1 0 1 1-2 0V1a1 1 0 0 1 1-1Z" clip-rule="evenodd"/><path fill-rule="evenodd" d="M6.293 10.293a1 1 0 0 1 1.414 0L12 14.586l4.293-4.293a1 1 0 1 1 1.414 1.414l-5 5a1 1 0 0 1-1.414 0l-5-5a1 1 0 0 1 0-1.414Z" clip-rule="evenodd"/></svg>
